icons/svg/money/bitcoin.svg

<?xml version="1.0" encoding="UTF-8" standalone="no"?>
<!-- Created with Inkscape (http://www.inkscape.org/) -->

<svg
   xmlns:dc="http://purl.org/dc/elements/1.1/"
   xmlns:cc="http://creativecommons.org/ns#"
   xmlns:rdf="http://www.w3.org/1999/02/22-rdf-syntax-ns#"
   xmlns:svg="http://www.w3.org/2000/svg"
   xmlns="http://www.w3.org/2000/svg"
   xmlns:sodipodi="http://sodipodi.sourceforge.net/DTD/sodipodi-0.dtd"
   xmlns:inkscape="http://www.inkscape.org/namespaces/inkscape"
   version="1.0"
   width="580"
   height="580"
   id="svg2"
   sodipodi:version="0.32"
   inkscape:version="0.48.4 r9939"
   sodipodi:docname="currency_exchange.svg"
   inkscape:output_extension="org.inkscape.output.svg.inkscape">
  <metadata
     id="metadata2975">
    <rdf:RDF>
      <cc:Work
         rdf:about="">
        <dc:format>image/svg+xml</dc:format>
        <dc:type
           rdf:resource="http://purl.org/dc/dcmitype/StillImage" />
        <cc:license
           rdf:resource="http://web.resource.org/cc/PublicDomain" />
        <dc:language>en</dc:language>
        <dc:title></dc:title>
      </cc:Work>
    </rdf:RDF>
  </metadata>
  <sodipodi:namedview
     inkscape:window-height="1021"
     inkscape:window-width="1680"
     inkscape:pageshadow="2"
     inkscape:pageopacity="0.0"
     guidetolerance="10.0"
     gridtolerance="10.0"
     objecttolerance="10.0"
     borderopacity="1.0"
     bordercolor="#666666"
     pagecolor="#ffffff"
     id="base"
     inkscape:zoom="0.65172414"
     inkscape:cx="124.42472"
     inkscape:cy="323.41466"
     inkscape:window-x="0"
     inkscape:window-y="0"
     inkscape:current-layer="svg2"
     showgrid="false"
     showguides="true"
     inkscape:guide-bbox="true"
     inkscape:window-maximized="1" />
  <defs
     id="defs4">
    <inkscape:perspective
       sodipodi:type="inkscape:persp3d"
       inkscape:vp_x="0 : 290 : 1"
       inkscape:vp_y="0 : 1000 : 0"
       inkscape:vp_z="580 : 290 : 1"
       inkscape:persp3d-origin="290 : 193.33333 : 1"
       id="perspective2441" />
    <inkscape:perspective
       id="perspective3452"
       inkscape:persp3d-origin="30 : 20 : 1"
       inkscape:vp_z="60 : 30 : 1"
       inkscape:vp_y="0 : 1000 : 0"
       inkscape:vp_x="0 : 30 : 1"
       sodipodi:type="inkscape:persp3d" />
    <symbol
       viewBox="244.5 110 489 219.9"
       id="symbol-university">
      <path
         id="path4460"
         d="M79,43l57,119c0,0,21-96,104-96s124,106,124,106l43-133l82-17L0,17L79,43z" />
      <path
         id="path4462"
         d="M94,176l-21,39"
         stroke-width="20"
         stroke="#000000"
         fill="none" />
      <path
         id="path4464"
         d="M300,19c0,10.5-22.6,19-50.5,19S199,29.5,199,19s22.6-19,50.5-19S300,8.5,300,19z" />
      <path
         id="path4466"
         d="M112,216l-16-38L64,88c0,0-9-8-4-35s16-24,16-24"
         stroke-width="20"
         stroke="#000000"
         ill="none" />
    </symbol>
    <inkscape:perspective
       id="perspective4471"
       inkscape:persp3d-origin="372.04724 : 350.78739 : 1"
       inkscape:vp_z="744.09448 : 526.18109 : 1"
       inkscape:vp_y="0 : 1000 : 0"
       inkscape:vp_x="0 : 526.18109 : 1"
       sodipodi:type="inkscape:persp3d" />
    <inkscape:perspective
       id="perspective4668"
       inkscape:persp3d-origin="6 : 4 : 1"
       inkscape:vp_z="12 : 6 : 1"
       inkscape:vp_y="0 : 1000 : 0"
       inkscape:vp_x="0 : 6 : 1"
       sodipodi:type="inkscape:persp3d" />
    <marker
       viewBox="0 0 10 10"
       refY="5"
       refX="10"
       orient="auto"
       markerWidth="4"
       markerUnits="strokeWidth"
       markerHeight="3"
       id="ArrowStart">
      <path
         id="path3634"
         d="M 10 0 L 0 5 L 10 10 z" />
    </marker>
    <marker
       viewBox="0 0 10 10"
       refY="5"
       refX="0"
       orient="auto"
       markerWidth="4"
       markerUnits="strokeWidth"
       markerHeight="3"
       id="ArrowEnd">
      <path
         id="path3631"
         d="M 0 0 L 10 5 L 0 10 z" />
    </marker>
    <inkscape:perspective
       id="perspective2510"
       inkscape:persp3d-origin="306.082 : 204.39034 : 1"
       inkscape:vp_z="612.164 : 306.58551 : 1"
       inkscape:vp_y="0 : 1000 : 0"
       inkscape:vp_x="0 : 306.58551 : 1"
       sodipodi:type="inkscape:persp3d" />
    <marker
       viewBox="0 0 10 10"
       refY="5"
       refX="10"
       orient="auto"
       markerWidth="4"
       markerUnits="strokeWidth"
       markerHeight="3"
       id="marker2611">
      <path
         id="path1325"
         d="M 10 0 L 0 5 L 10 10 z" />
    </marker>
    <marker
       viewBox="0 0 10 10"
       refY="5"
       refX="0"
       orient="auto"
       markerWidth="4"
       markerUnits="strokeWidth"
       markerHeight="3"
       id="marker2608">
      <path
         id="path1322"
         d="M 0 0 L 10 5 L 0 10 z" />
    </marker>
    <inkscape:perspective
       id="perspective2605"
       inkscape:persp3d-origin="306.082 : 204.39034 : 1"
       inkscape:vp_z="612.164 : 306.58551 : 1"
       inkscape:vp_y="0 : 1000 : 0"
       inkscape:vp_x="0 : 306.58551 : 1"
       sodipodi:type="inkscape:persp3d" />
    <inkscape:perspective
       id="perspective2656"
       inkscape:persp3d-origin="372.04724 : 350.78739 : 1"
       inkscape:vp_z="744.09448 : 526.18109 : 1"
       inkscape:vp_y="0 : 1000 : 0"
       inkscape:vp_x="0 : 526.18109 : 1"
       sodipodi:type="inkscape:persp3d" />
    <marker
       viewBox="0 0 10 10"
       refY="5"
       refX="10"
       orient="auto"
       markerWidth="4"
       markerUnits="strokeWidth"
       markerHeight="3"
       id="marker4460">
      <path
         id="path2826"
         d="M 10 0 L 0 5 L 10 10 z" />
    </marker>
    <marker
       viewBox="0 0 10 10"
       refY="5"
       refX="0"
       orient="auto"
       markerWidth="4"
       markerUnits="strokeWidth"
       markerHeight="3"
       id="marker4457">
      <path
         id="path2823"
         d="M 0 0 L 10 5 L 0 10 z" />
    </marker>
    <inkscape:perspective
       id="perspective4454"
       inkscape:persp3d-origin="421.95551 : 208.05033 : 1"
       inkscape:vp_z="843.91101 : 312.0755 : 1"
       inkscape:vp_y="0 : 1000 : 0"
       inkscape:vp_x="0 : 312.0755 : 1"
       sodipodi:type="inkscape:persp3d" />
  </defs>
  <g
     id="g1327">
    <path
       d="M 66.275,1.768 C 24.94,1.768 1.704,23.139 1.704,66.804 L 1.704,516.927 C 1.704,557.771 22.599,579.156 63.896,579.156 L 515.92,579.156 C 557.227,579.156 578.149,558.841 578.149,516.927 L 578.149,66.804 C 578.149,24.203 557.227,1.768 514.628,1.768 C 514.624,1.768 66.133,1.625 66.275,1.768 z "
       style="fill:#111;stroke:#eee;stroke-width:3.40799999"
       id="path1329" />
  </g>
  <path
     id="path2836"
     style="fill:#000000;stroke:#000000;stroke-width:1.85899997"
     d="" />
  <g
     id="g2830"
     transform="matrix(1.0003476,0,0,0.7145342,-135.88909,-99.846725)"
     style="opacity:0.5;fill:#ffffff;fill-opacity:1;stroke:#ffffff;stroke-opacity:1">
    <path
       id="path2834"
       style="fill:#ffffff;fill-opacity:1;stroke:#ffffff;stroke-width:42;stroke-opacity:1"
       d="" />
  </g>
  <path
     style="opacity:1;fill:#ffffff;fill-opacity:1;fill-rule:evenodd"
     d="M 287.99638,46.373719 C 179.53208,47.189619 81.130535,120.94927 53.687875,231.08605 21.132795,361.59569 100.55912,493.79809 231.03828,526.33793 c 130.5325,32.54652 262.7387,-46.86177 295.2796,-177.37808 32.5398,-130.52487 -46.8809,-262.739711 -177.4058,-295.279561 -20.3898,-5.08435 -40.8298,-7.45766 -60.9157,-7.30657 z m -8.8288,72.263091 28.8388,7.19587 -11.5964,46.46868 c 7.7427,1.7682 15.5232,3.53309 23.1098,5.42458 l 11.5133,-46.16425 28.8665,7.19587 -11.8178,47.40968 c 36.4366,12.55001 63.0805,31.3698 57.8437,66.36802 -3.7891,25.61988 -17.982,38.02451 -36.8373,42.37258 25.8912,13.47982 39.0641,34.15599 26.514,69.99362 -15.5758,44.50705 -52.5843,48.25329 -101.7939,38.9407 l -11.9562,47.88018 -28.8387,-7.19586 11.7624,-47.21595 c -7.4786,-1.85861 -15.1248,-3.84105 -22.9991,-5.9781 l -11.8178,47.43736 -28.8112,-7.19587 11.9286,-47.93553 c -6.7409,-1.72608 -13.5782,-3.56314 -20.5636,-5.31387 l -37.55684,-9.35463 14.30864,-33.04562 c 0,0 21.2664,5.65003 20.9788,5.23084 8.17,2.023 11.7991,-3.28529 13.2293,-6.83607 l 18.8754,-75.6673 0.055,-0.22141 13.4508,-53.99666 c 0.3533,-6.13168 -1.7628,-13.8817 -13.4508,-16.79958 0.451,-0.30412 -20.951,-5.20316 -20.951,-5.20316 l 7.6941,-30.80384 39.7986,9.93583 -0.055,0.13838 c 5.9837,1.48771 12.1517,2.88734 18.4325,4.31752 l 11.8455,-47.38201 z m 9.4653,87.73421 -14.364,57.62227 c 16.2897,4.05936 66.5049,20.61325 74.6432,-11.98388 8.4742,-34.00368 -43.9884,-41.57801 -60.2792,-45.63839 z m -21.6153,86.71017 -15.8586,63.51735 c 19.5623,4.8587 79.9243,24.24018 88.8413,-11.59641 9.3208,-37.37363 -53.4215,-47.03862 -72.9827,-51.92094 z"
     id="path7"
     inkscape:connector-curvature="0" />
</svg>

<svg width="580" height="580" viewBox="0 0 580 580" fill="none" xmlns="http://www.w3.org/2000/svg">
<g clip-path="url(#clip0)">
<path d="M66.2751 1.76799C24.9401 1.76799 1.7041 23.139 1.7041 66.804V516.927C1.7041 557.771 22.5991 579.156 63.8961 579.156H515.92C557.227 579.156 578.149 558.841 578.149 516.927V66.804C578.149 24.203 557.227 1.76799 514.628 1.76799C514.624 1.76799 66.1331 1.62499 66.2751 1.76799Z" fill="#111111" stroke="#EEEEEE" stroke-width="3.408"/>
<path fill-rule="evenodd" clip-rule="evenodd" d="M287.996 46.3737C179.532 47.1896 81.1305 120.949 53.6879 231.086C21.1328 361.596 100.559 493.798 231.038 526.338C361.571 558.884 493.777 479.476 526.318 348.96C558.858 218.435 479.437 86.2201 348.912 53.6803C328.522 48.5959 308.082 46.2226 287.996 46.3737V46.3737ZM279.168 118.637L308.006 125.833L296.41 172.301C304.153 174.07 311.933 175.834 319.52 177.726L331.033 131.562L359.9 138.758L348.082 186.167C384.518 198.717 411.162 217.537 405.925 252.535C402.136 278.155 387.943 290.56 369.088 294.908C394.979 308.388 408.152 329.064 395.602 364.901C380.026 409.409 343.018 413.155 293.808 403.842L281.852 451.722L253.013 444.526L264.776 397.311C257.297 395.452 249.651 393.469 241.777 391.332L229.959 438.77L201.148 431.574L213.076 383.638C206.335 381.912 199.498 380.075 192.513 378.325L154.956 368.97L169.264 335.924C169.264 335.924 190.531 341.574 190.243 341.155C198.413 343.178 202.042 337.87 203.473 334.319L222.348 258.652L222.403 258.43L235.854 204.434C236.207 198.302 234.091 190.552 222.403 187.634C222.854 187.33 201.452 182.431 201.452 182.431L209.146 151.627L248.945 161.563L248.89 161.701C254.873 163.189 261.041 164.589 267.322 166.019L279.168 118.637H279.168ZM288.633 206.371L274.269 263.993C290.559 268.053 340.774 284.607 348.912 252.009C357.386 218.006 304.924 210.431 288.633 206.371ZM267.018 293.081L251.159 356.599C270.721 361.457 331.083 380.839 340 345.002C349.321 307.629 286.579 297.963 267.018 293.081V293.081Z" fill="white"/>
</g>
<defs>
<clipPath id="clip0">
<path d="M0 0H580V580H0V0Z" fill="white"/>
</clipPath>
</defs>
</svg>
